X: 21541
T: Kildare Fancy, The
R: hornpipe
M: 4/4
K: Dmajor
|:d>B|A>FD>F A2 (3dcB|(3ABA F>A f>ed>c|B2 (3GB/c/d g>ef>d|e>d (3cdB A2 (3EFG|
(3ABA D>F A>Fd>B|A>D (3FGA f2 (3edc|B>DG>B g>e f2|1 (3edc (3ABc d2:|2 .e2 .c2 d3/2[A/c/]||
|:d>e|f>dc>d (3Bd A>d|F>Ad>e f>dc>d|e>A (3AAA f>A^G>A|e>dc>B A>cd>e|
(3fed c>d (3FED A>d|F2 (3cde f>dc>B|e>Af>A g>Af>A|e>AB>c d2:|

